app/dist/common/images/saudi-investment-bank.svg

<svg height="18" viewBox="0 0 18 18" width="18" xmlns="http://www.w3.org/2000/svg"><path d="m0 0h18v18h-18z" fill="#f0f3fa"/><path d="m7.05 7.28-.62-.62a.89.89 0 0 1 .02-1.3l2.51-2.36 2.55 2.36c.39.36.4.93.03 1.3l-.62.62v-.28l-1.96-1.75-1.91 1.76zm-.3.06-1.95 1.65 4.05 3.75.23.39v-.39l4.07-3.74-1.83-1.65 1.17-1.1 2.18 2.02a.99.99 0 0 1 0 1.47l-5.67 5.26-5.67-5.27a.99.99 0 0 1 0-1.47l2.2-2.02z" fill="#1d1d1b"/><circle cx="9" cy="9" fill="#fecc0d" r="2"/></svg>

<!-- by TradingView --><svg width="18" height="18" viewBox="0 0 18 18" xmlns="http://www.w3.org/2000/svg"><path fill="#F0F3FA" d="M0 0h18v18H0z"/><path d="m7.05 7.28-.62-.62a.89.89 0 0 1 .02-1.3L8.96 3l2.55 2.36c.39.36.4.93.03 1.3l-.62.62V7L8.96 5.25 7.05 7.01v.27Zm-.3.06L4.8 8.99l4.05 3.75.23.39v-.39L13.15 9l-1.83-1.65 1.17-1.1 2.18 2.02a.99.99 0 0 1 0 1.47L9 15 3.33 9.73a.99.99 0 0 1 0-1.47l2.2-2.02 1.22 1.1Z" fill="#1D1D1B"/><circle cx="9" cy="9" r="2" fill="#FECC0D"/></svg>
